!!!!SEGMENT: pl-kk--kk-i-475--005_studzinski-karol--msza-3cia-sanctus.krn
!!!cenid: 18xx:1381
!!!COM: Studziński, Karol
!!!COM-rism: pe30040593
!!!CDT: 1828/01/24-1883/03/16
!!!CNT: Polish
!!!OTL: Msza 3cia – Sanctus
!!!PDT:
!!!AGN: Sacred; Mass
!!!SMS-siglum: PL-Kk
!!!SMS-shelfmark: Kk.I.475
!!!NIFC-rismID: 1001140246
!!!URL-scan: http://repozytorium.nifc.pl/skany/pl-kk-nut--i-475
!!!ONB-nifc: UWAGA: części Mszy: 1. Kyrie, 2. Gloria, 3. Graduale, 4. Credo, 5. Sanctus, 6. O salutaris, 7. Agnus Dei
!!!SMS-variant:
!!!SMS-altvar:
**kern	**kern	**text	**dynam	**kern	**text	**dynam	**kern	**text	**dynam
*part4	*part3	*part3	*part3	*part2	*part2	*part2	*part1	*part1	*part1
*staff4	*staff3	*staff3	*	*staff2	*staff2	*	*staff1	*staff1	*
*I"[Bas.]	*I"Tenor.	*	*	*I"Alt.	*	*	*I"Sopran.	*	*
*I'B	*I'T	*	*	*I'A	*	*	*I'S	*	*
*group1	*group1	*	*	*group1	*	*	*group1	*	*
*clefF4	*clefG2	*	*	*clefG2	*	*	*clefG2	*	*
*	*Trd0c0	*	*	*	*	*	*	*	*
*k[b-]	*k[b-]	*	*	*k[b-]	*	*	*k[b-]	*	*
*M4/4	*M4/4	*	*	*M4/4	*	*	*M4/4	*	*
*met(c)	*met(c)	*	*	*met(c)	*	*	*met(c)	*	*
=1	=1	=1	=1	=1	=1	=1	=1	=1	=1
!	!LO:SIC:t=błędny klucz, zapisano w kluczu transponującym 8 w dół	!	!	!	!	!	!	!	!
!	!LO:TX:a:t=Adagio maestoso	!	!	!LO:TX:a:t=Adagio maestoso	!	!	!LO:TX:a:t=Adagio Maestoso	!	!LO:DY:b:t=fo
1ryy	2a/	San-	.	2c/	San-	.	2f/	San-	f
.	4a/	-ctus	.	4c/	-ctus	.	4f/	-ctus	.
.	4r	.	.	4r	.	.	4r	.	.
=2	=2	=2	=2	=2	=2	=2	=2	=2	=2
1ryy	2dd\	San-	.	2f/	San-	.	2a/	San-	.
!	!LO:TX:t=P:problem:4,8\right or middle:global	!	!	!	!	!	!	!	!
.	4dd\	-ctus	.	4f/	-ctus	.	4a/	-ctus	.
.	4r	.	.	4r	.	.	4r	.	.
=3	=3	=3	=3	=3	=3	=3	=3	=3	=3
1ryy	(2dd\	San-	.	2.f/	San-	.	(2dd\	San-	.
.	4cc\)	.	.	.	.	.	4cc\)	.	.
.	4a/	-ctus	.	4f#X/	-ctus	.	4dd\	-ctus	.
!	!LO:LB:g=original	!	!	!	!	!	!LO:LB:g=original	!	!
=4	=4	=4	=4	=4	=4	=4	=4	=4	=4
1ryy	4dd\	Do-	.	4g/	Do-	.	4.cc\	Do-	.
.	4ee\	-mi-	.	4g/	-mi-	.	.	.	.
!	!	!	!	!	!	!	!LO:TX:t=P:problem:4,8\right or middle:global	!	!
.	.	.	.	.	.	.	8b-\	-mi-	.
!	!	!	!	!LO:SIC:l:s=nus:v	!	!	!	!	!
.	2ff\	-nus	.	2f/	-num	.	2a/	-nus	.
!	!	!	!	!LO:LB:g=original	!	!	!	!	!
=5	=5	=5	=5	=5	=5	=5	=5	=5	=5
1ryy	2ff\	Do-	.	2a/	Do-	.	2ff\	Do-	.
.	4ee\	-mi-	.	4b-/	-mi-	.	4ff\	-mi-	.
!	!	!	!	!LO:TX:t=P:problem:korekta ołówkiem: 4cc, dopisek: do	!	!	!	!	!
!	!	!	!	!LO:TX:t=P:problem:4,8\right or middle:global	!	!	!	!	!
.	4ee-X\	-nus	.	4b-\	-nus	.	4ff\	-nus	.
=6	=6	=6	=6	=6	=6	=6	=6	=6	=6
1ryy	(2dd\	De-	.	(4cc\	De-	.	2.ff\	De-	.
.	.	.	.	4bn\	.	.	.	.	.
.	4dd-X\)	.	.	4b-X\	.	.	.	.	.
.	4cc\	-us	.	4a/)	-us	.	4ff\	-us	.
=7	=7	=7	=7	=7	=7	=7	=7	=7	=7
1ryy	(2bn\	De-	.	(>2a-X/	De-	.	(4.ff\	De-	.
.	.	.	.	.	.	.	16ee\LL	.	.
.	.	.	.	.	.	.	16dd\JJ	.	.
.	4b-X\)	.	.	4g/)	.	.	4cc\)	.	.
.	4g/	-us	.	4e/	-us	.	4cc\	-us	.
!	!LO:LB:g=original	!	!	!	!	!	!LO:LB:g=original	!	!
=8	=8	=8	=8	=8	=8	=8	=8	=8	=8
1ryy	4.a/	Sa-	.	4.f/	Sa-	.	4.cc\	Sa-	.
.	8cc\	-ba-	.	8f/	-ba-	.	8a/	-ba-	.
.	2cc\	-oth	.	2f/	-oth	.	2a/	-oth	.
!	!	!	!	!LO:LB:g=original	!	!	!	!	!
=9	=9	=9	=9	=9	=9	=9	=9	=9	=9
1ryy	2ff\	San-	.	2a/	San-	.	2dd\	San-	.
.	4ff\	-ctus	.	4a/	-ctus	.	4dd\	-ctus	.
.	4r	.	.	4r	.	.	4r	.	.
=10	=10	=10	=10	=10	=10	=10	=10	=10	=10
1ryy	2dd\	San-	.	2b-\	San-	.	2dd\	San-	.
.	4dd\	-ctus	.	4b-\	-ctus	.	4dd\	-ctus	.
.	4r	.	.	4r	.	.	4r	.	.
=11	=11	=11	=11	=11	=11	=11	=11	=11	=11
1ryy	4dd\	Do-	.	4b-\	Do-	.	4dd\	Do-	.
.	8dd\	-mi-	.	8b-\L	-mi-	.	8dd\	-mi-	.
.	8cc\	-nus	.	8a\J	-nus	.	8dd\	-nus	.
.	4b-\	De-	.	4g/	De-	.	4.dd\	De-	.
.	4b-\	-us	.	4g/	-us	.	.	.	.
.	.	.	.	.	.	.	8dd-X\	-us	.
!	!LO:LB:g=original	!	!	!	!	!	!LO:LB:g=original	!	!
=12	=12	=12	=12	=12	=12	=12	=12	=12	=12
1ryy	4b-\	Sa-	.	(8g/L	Sa-	.	2cc\	Sa-	.
.	.	.	.	8g#X/	.	.	.	.	.
.	8cc\	.	.	8a/	.	.	.	.	.
.	8b-\	-ba-	.	8gn/J)	-ba-	.	.	.	.
.	2a/	-oth	.	2f/	-oth	.	2cc\	-baoth	.
!	!	!	!	!LO:LB:g=original	!	!	!	!	!
=13	=13	=13	=13	=13	=13	=13	=13	=13	=13
1ryy	2g/	De-	.	8f/L	De-	.	4.bn\	De-	.
.	.	.	.	8e/J	.	.	.	.	.
.	.	.	.	4f/	-us	.	.	.	.
.	.	.	.	.	.	.	8b\	-us	.
.	2g/	-us	.	8f/L	De-	.	4b\	De-	.
.	.	.	.	8e/J	.	.	.	.	.
.	.	.	.	4f/	-us	.	4cc\	-us	.
=14	=14	=14	=14	=14	=14	=14	=14	=14	=14
1ryy	8a-X/L	Sa-	.	8f/L	Sa-	.	4.dd\	Sa-	.
.	8g/	.	.	8g/	.	.	.	.	.
.	8f/	.	.	8a-X/	.	.	.	.	.
.	8g/J	-ba-	.	8g/J	-ba-	.	8dd\	-ba-	.
.	2a-/	-oth	.	2f/	-oth	.	2dd\	-oth	.
=15	=15	=15	=15	=15	=15	=15	=15	=15	=15
1ryy	4.g/	De-	.	4.e/	De-	.	4.cc\	De-	.
.	8cc\	-us	.	8e/	-us	.	8cc\	-us	.
.	4cc\	Sa-	.	4g/	Sa-	.	4b-\	Sa-	.
.	4cc\	-ba-	.	4f/	-ba-	.	4a\	-ba-	.
=16	=16	=16	=16	=16	=16	=16	=16	=16	=16
1ryy	1cc;	-oth	.	1e;	-oth	.	1g;	-oth	.
!	!LO:LB:g=original	!	!	!LO:LB:g=original	!	!	!LO:LB:g=original	!	!
=17||	=17||	=17||	=17||	=17||	=17||	=17||	=17||	=17||	=17||
*	*	*	*	*	*	*	*k[b-]	*	*
*M4/4	*M4/4	*	*	*M4/4	*	*	*M4/4	*	*
*met(c)	*met(c)	*	*	*met(c)	*	*	*met(c)	*	*
!	!	!	!	!LO:TX:a:t=Pleni	!	!	!	!	!
!	!LO:TX:a:t=Pleni	!	!	!LO:TX:a:t=1	!	!	!LO:TX:a:t=Pleni	!	!
!	!LO:TX:a:t=All[egr]o moderato	!	!	!LO:TX:a:t=All[egr]o mod[era]to	!	!	!LO:TX:a:t=All[egr]o moderato.	!	!LO:DY:b:t=ffo
1ryy	2cc\	Ple-	.	1r	.	.	2cc\	Ple-	ff
.	4cc\	-ni	.	.	.	.	4cc\	-ni	.
.	4cc\	sunt	.	.	.	.	4cc\	sunt	.
=18	=18	=18	=18	=18	=18	=18	=18	=18	=18
1ryy	[1cc	coe-	.	2e/	Ple-	.	[1cc	coe-	.
.	.	.	.	4f/	-ni	.	.	.	.
.	.	.	.	4g/	sunt	.	.	.	.
=19	=19	=19	=19	=19	=19	=19	=19	=19	=19
1ryy	2cc\]	.	.	2a/	coe-	.	2cc\]	.	.
.	4cc\	-li	.	4a-X/	-li	.	4ee\	-li	.
.	4bn\	et	.	4a-/	et	.	4dd\	et	.
=20	=20	=20	=20	=20	=20	=20	=20	=20	=20
1ryy	2cc\	ter-	.	4g/	ter-	.	4.cc\	ter-	.
.	.	.	.	4e/	.	.	.	.	.
.	.	.	.	.	.	.	8b-\	.	.
.	2cc\	-ra	.	2f/	-ra	.	2a/	-ra	.
!	!LO:LB:g=original	!	!	!	!	!	!LO:LB:g=original	!	!
=21	=21	=21	=21	=21	=21	=21	=21	=21	=21
1ryy	2cc\	Glo-	.	2cc\	Glo-	.	2cc\	Glo-	.
.	4cc\	-ri-	.	4cc\	-ri-	.	4cc\	-ri-	.
.	4cc\	-a	.	4cc\	-a	.	4cc\	-a	.
!	!	!	!	!LO:LB:g=original	!	!	!	!	!
=22	=22	=22	=22	=22	=22	=22	=22	=22	=22
1ryy	[1cc	Glo-	.	2e/	Glo-	.	[1cc	Glo-	.
.	.	.	.	4f/	.	.	.	.	.
.	.	.	.	4g/	.	.	.	.	.
=23	=23	=23	=23	=23	=23	=23	=23	=23	=23
1ryy	2cc\]	.	.	2a/	.	.	2cc\]	.	.
.	4bn\	-ri-	.	4a-X/	-ri-	.	4ee\	-ri-	.
.	4dd\	-a	.	4a-/	-a	.	4dd\	-a	.
=24	=24	=24	=24	=24	=24	=24	=24	=24	=24
1ryy	(4ee\	Tu-	.	(4g/	Tu-	.	4.cc\	Tu-	.
.	4cc\	.	.	4e/)	.	.	.	.	.
.	.	.	.	.	.	.	8b-\	.	.
.	4cc\)	-a	.	4f/	-a	.	4a/	-a	.
!	!	!	!	!	!	!	!	!	!LO:DY:b:t=ffo
.	4ff\	O-	.	4a/	O-	ff	4cc\	O-	ff
!	!LO:PB:g=original	!	!	!	!	!	!LO:LB:g=original	!	!
=25	=25	=25	=25	=25	=25	=25	=25	=25	=25
1ryy	2ff\	-Osan-	.	2b-\	-san-	.	2dd\	-san-	.
.	4ff\	-na	.	4a/	-na	.	4cc\	-na	.
.	4cc\	O-	.	4f/	O-	.	4a/	O-	.
!	!	!	!	!LO:LB:g=original	!	!	!	!	!
=26	=26	=26	=26	=26	=26	=26	=26	=26	=26
1ryy	2cc\	-san-	.	2g/	-san-	.	2b-/	-san-	.
.	2cc\	-na	.	2f/	-na	.	2a/	-na	.
=27	=27	=27	=27	=27	=27	=27	=27	=27	=27
1ryy	4dd\	in	.	4f/	in	.	4g/	in	.
.	4dd\	ex-	.	4f/	ex-	.	4g/	ex-	.
.	2dd\	-cel-	.	2f/	-cel-	.	4a/	-cel-	.
.	.	.	.	.	.	.	4g/	-[[sis]]-	.
=28	=28	=28	=28	=28	=28	=28	=28	=28	=28
*	*	*	*	*	*	*	*^	*	*
1ryy	2cc\	-sis	.	2e/	-sis	.	2g/	2ryy	-sis.	.
.	2r	.	.	2r	.	.	4r	4ryy	.	.
!	!	!	!	!	!	!	!LO:TX:b:t=II Sop	!	!	!
!	!	!	!	!	!	!	!LO:TX:a:t=Sop	!	!	!
.	.	.	.	.	.	.	4c/	4c\	O-	.
!	!	!	!	!	!	!	!LO:LB:g=original	!	!	!
=29	=29	=29	=29	=29	=29	=29	=29	=29	=29	=29
!	!	!	!	!	!	!	!LO:TX:b:t=II S	!	!	!
!	!LO:TX:a:t=8	!	!	!LO:TX:a:t=1	!	!	!LO:TX:a:t=I S	!	!	!
1ryy	00r	.	.	1r	.	.	4f/	4f\	-san-	.
.	.	.	.	.	.	.	4c/	4c\	-na	.
.	.	.	.	.	.	.	4f/	4f\	in	.
.	.	.	.	.	.	.	4g/	4g\	ex-	.
=30	=30	=30	=30	=30	=30	=30	=30	=30	=30	=30
1ryy	.	.	.	4r	.	.	(4a/	4a\	-cel-	.
.	.	.	.	(4c/	O-	.	4f/)	4f\	.	.
.	.	.	.	4f/	.	.	4a/	4a\	-sis	.
.	.	.	.	4g/)	.	.	4b-/	4b-\	o-	.
!	!	!	!	!LO:PB:g=original	!	!	!	!	!	!
=31	=31	=31	=31	=31	=31	=31	=31	=31	=31	=31
*	*	*	*	*^	*	*	*	*	*	*
1ryy	.	.	.	4a/	4ryy	-san-	.	4cc/	4cc\	-san-	.
.	.	.	.	(8f/L	4ryy	-na	.	4a/	4a\	-na	.
.	.	.	.	8e-X/J)	.	.	.	.	.	.	.
.	.	.	.	4d/ 4f	4d\	in	.	4b-/	4b-\	in	.
.	.	.	.	4c/ 4f	4c\	ex-	.	4cc/	4a\	ex-	.
=32	=32	=32	=32	=32	=32	=32	=32	=32	=32	=32	=32
1ryy	.	.	.	2B-/ 2f	2B-\	-cel-	.	2dd/	2b-\	-cel-	.
.	.	.	.	4B-/ 4d	4B-\	-sis	.	4b-/	4b-\	-sis	.
.	.	.	.	4d/	4d\	o-	.	4r	4ryy	.	.
*	*	*	*	*	*	*	*	*v	*v	*	*
!	!	!	!	!	!	!	!	!LO:LB:g=original	!	!
=33	=33	=33	=33	=33	=33	=33	=33	=33	=33	=33
1ryy	00r	.	.	4g/	4g\	-san-	.	1r	.	.
.	.	.	.	4d/	4d\	-na	.	.	.	.
.	.	.	.	4g/	4g\	in	.	.	.	.
.	.	.	.	4a/	4a\	ex-	.	.	.	.
=34	=34	=34	=34	=34	=34	=34	=34	=34	=34	=34
1ryy	.	.	.	(4b-/	4b-\	-cel-	.	4r	.	.
.	.	.	.	4d/)	4d\	.	.	(4g/	O-	.
.	.	.	.	4g/	4g\	-sis	.	(4b-\)	.	.
.	.	.	.	4a/	4a\	o-	.	4cc\)	.	.
!	!	!	!	!LO:LB:g=original	!	!	!	!	!	!
=35	=35	=35	=35	=35	=35	=35	=35	=35	=35	=35
*	*	*	*	*	*	*	*	*^	*	*
1ryy	.	.	.	4b-/	4b-\	-sa-	.	4dd\	4ryy	-san-	.
!	!	!	!	!	!	!	!	!LO:TX:t=P:problem:/left	!	!	!
.	.	.	.	4a/	4a\	-na	.	4dd/	4a\	-na	.
.	.	.	.	4g/	4g\	in	.	4b-/ 4gg	4b-\	in	.
.	.	.	.	4g/	4d\	ex-	.	4b-/ 4ff	4b-\	ex-	.
=36	=36	=36	=36	=36	=36	=36	=36	=36	=36	=36	=36
1ryy	.	.	.	2g/	2d-X\	-cel-	.	2ff^/	2b-\	-cel-	.
.	.	.	.	4g/	4c\	-sis	.	4ee/	4b-\	-sis	.
.	.	.	.	4r	4ryy	.	.	4r	4ryy	.	.
*	*	*	*	*v	*v	*	*	*	*	*	*
*	*	*	*	*	*	*	*v	*v	*	*
!	!	!	!	!	!	!	!LO:LB:g=original	!	!
=37	=37	=37	=37	=37	=37	=37	=37	=37	=37
1ryy	4r	.	.	1f	O-	.	4r	.	.
!	!	!	!LO:DY:b:t=fo	!	!	!	!	!	!LO:DY:a:t=fo
.	(4cc\	O-	f	.	.	.	(4a/	O-	f
.	4dd\	.	.	.	.	.	4b-/	.	.
.	4b-\)	.	.	.	.	.	4dd\)	.	.
!	!LO:LB:g=original	!	!	!	!	!	!	!	!
=38	=38	=38	=38	=38	=38	=38	=38	=38	=38
1ryy	(4g/	-san-	.	2e/	-san-	.	4.cc\	-san-	.
.	4cc\)	.	.	.	.	.	.	.	.
.	.	.	.	.	.	.	8b-\	.	.
.	2cc\	-na	.	2f/	-na	.	2a/	-na	.
!	!	!	!	!LO:LB:g=original	!	!	!	!	!
=39	=39	=39	=39	=39	=39	=39	=39	=39	=39
1ryy	4r	.	.	4r	.	.	4r	.	.
.	4cc\	in	.	(>4a/	in	.	2ff^\	in	.
.	(4dd\	ex-	.	4b-/)	.	.	.	.	.
.	4ff\)	.	.	4f/	ex-	.	(8ee\L	ex-	.
.	.	.	.	.	.	.	8dd\J)	.	.
=40	=40	=40	=40	=40	=40	=40	=40	=40	=40
1ryy	4ee\	-cel-	.	(>4g/	-cel-	.	(4.cc\	-cel-	.
.	4cc\	-sis	.	4e/)	.	.	.	.	.
.	.	.	.	.	.	.	8b-\)	.	.
.	2cc\	O-	.	2f/	-sis	.	4a/	-sis	.
.	.	.	.	.	.	.	4a/	O-	.
!	!	!	!	!	!	!	!LO:LB:g=original	!	!
=41	=41	=41	=41	=41	=41	=41	=41	=41	=41
1ryy	(4cc\	-sa-	.	2f/	O-	.	(4a/	-sa-	.
.	8b-\L	.	.	.	.	.	8g/L	.	.
.	8a\J	.	.	.	.	.	8f/J)	.	.
.	4b-\)	.	.	4f/	-san-	.	2b-/	-na	.
.	4b-\	-na	.	8e-X/L	-na	.	.	.	.
.	.	.	.	8d/J	.	.	.	.	.
!	!LO:LB:g=original	!	!	!	!	!	!	!	!
=42	=42	=42	=42	=42	=42	=42	=42	=42	=42
1ryy	(4dd\	in	.	2.g/	in	.	(4bn/	in	.
.	8cc\L	.	.	.	.	.	8a/L	.	.
.	8bn\J	.	.	.	.	.	8g/J)	.	.
.	4cc\)	.	.	.	.	.	2cc/	ex-	.
.	4cc\	ex-	.	8f/L	ex-	.	.	.	.
.	.	.	.	8en/J	.	.	.	.	.
!	!	!	!	!LO:LB:g=original	!	!	!	!	!
=43	=43	=43	=43	=43	=43	=43	=43	=43	=43
1ryy	(4ee\	-cel-	.	2a/	-cel-	.	(4cc#X\	-cel-	.
.	8dd\L	.	.	.	.	.	8bn\L	.	.
.	8cc#X\J	.	.	.	.	.	8a\J)	.	.
.	4dd\)	-sis	.	4a/	-sis	.	4dd\	-sis	.
.	4dd\	o-	.	(8g/L	o-	.	4dd\	o-	.
.	.	.	.	8f/J)	-san-	.	.	.	.
!	!	!	!	!	!	!	!LO:LB:g=original	!	!
=44	=44	=44	=44	=44	=44	=44	=44	=44	=44
1ryy	4gg\	-san-	.	(>4cc/	.	.	(4ee\	-san-	.
.	4ee\	.	.	4g/)	.	.	8dd\L	.	.
.	.	.	.	.	.	.	8cc\J)	.	.
.	4ff\	-na	.	[>4f/	-na	.	4ff\	-na	.
.	4cc\	o-	.	4f/]	o-	.	(8ff\L	o-	.
.	.	.	.	.	.	.	8ee\J)	.	.
!	!LO:LB:g=original	!	!	!	!	!	!	!	!
=45	=45	=45	=45	=45	=45	=45	=45	=45	=45
1ryy	4b-/	-san-	.	4f/	-san-	.	4dd\	-sa-	.
.	4a/	-na	.	4f/	-na	.	(8dd\L	-na	.
.	.	.	.	.	.	.	8cc\J)	.	.
.	4a-X/	in	.	4f/	in	.	4bn\	in	.
.	4g/	ex-	.	4c/	ex-	.	(8cc\L	ex-	.
.	.	.	.	.	.	.	8b-X\J)	.	.
=46	=46	=46	=46	=46	=46	=46	=46	=46	=46
1ryy	(4f/	-cel-	.	(4c/	-cel-	.	(4a/	-cel-	.
.	4a/	.	.	4e-X/)	.	.	4cc\	.	.
.	4b-/)	-sis	.	4.d/	-sis	.	4b-\)	sis	.
.	4b-/	o-	.	.	.	.	4g/	o-	.
.	.	.	.	8d-X/	o-	.	.	.	.
!	!	!	!	!	!	!	!LO:PB:g=original	!	!
=47	=47	=47	=47	=47	=47	=47	=47	=47	=47
1ryy	(2a/	-san-	.	(>2c/	-san-	.	(>(2f/	-san-	.
.	4cc/	.	.	2e/)	.	.	4.a/)	.	.
.	4b-/)	.	.	.	.	.	.	.	.
.	.	.	.	.	.	.	8g/)	-[[na]]	.
!	!	!	!	!LO:LB:g=original	!	!	!	!	!
=48	=48	=48	=48	=48	=48	=48	=48	=48	=48
1ryy	2a/	-na	.	2f/	-na	.	2f/	na	.
.	2r	.	.	2r	.	.	4f/	in	.
.	.	.	.	.	.	.	4f/	ex-	.
!	!LO:LB:g=original	!	!	!	!	!	!	!	!
=49	=49	=49	=49	=49	=49	=49	=49	=49	=49
!	!	!	!	!	!	!LO:DY:b:t=fo.	!	!	!
1ryy	2r	.	.	2r	.	f	[>1f	-cel-	.
.	4cc\	in	.	4e-X/	in	.	.	.	.
.	4cc\	ex-	.	4e-/	ex-	.	.	.	.
=50	=50	=50	=50	=50	=50	=50	=50	=50	=50
1ryy	2bn\	-cel-	.	2d/	-cel-	.	1f_>	.	.
.	2b-X\	.	.	(>2d-X/	.	.	.	.	.
=51	=51	=51	=51	=51	=51	=51	=51	=51	=51
1ryy	[1f [1a	-sis	.	[>1c)	-sis	.	1f_>	-sis.	.
=52	=52	=52	=52	=52	=52	=52	=52	=52	=52
1ryy	1f;] 1a]	.	.	1c]	.	.	1f;]	.	.
==	==	==	==	==	==	==	==	==	==
*-	*-	*-	*-	*-	*-	*-	*-	*-	*-
!!!system-decoration: [(g1)]
!!!RDF**kern: >= above
!!!RDF**kern: <= below
!!!ENC:Anna Matuszewska
!!!END:2021-01-15
!!!ENC:Krzysztof Stępień
!!!END:2021-01-09
